X: 44
T: Ma plus qu'assez
N: Derived from Bus3040-Ma_plus_quassez.krn
C: Antoine Busnoys
%%abc-version 2.0
%%abcx-abcm2ps-target-version 5.9.1 (29 Sep 2008)
%%abc-creator hum2abc beta
%%abcx-conversion-date 2019/02/16 20:26:07
%%abc-edited-by Jesse Rodin
%%abc-edited-by Chris Gage 03-28-2015
%%abcx-initial-encoding-date 2015/04/13/
%%humdrum-veritas 2148107546
%%humdrum-veritas-data 2834843941
%%linebreak <none>
%%barnumbers 0
L: 1/4
M: 3/1
Q: 1/2=120
V: 1 clef=treble-8
V: 2 clef=treble-8
V: 3 clef=bass
K: F
[V:1] c8c4 | 
[V:2] F8E4 | 
[V:3] F,,8C,4 | 
[V:1] d4e6d2 | 
[V:2] F4G6F2 | 
[V:3] B,,4G,,4C,4 | 
[V:1] f4e2c2d4 | 
[V:2] F4c2c4B2 | 
[V:3] D,4z2E,2F,2G,2 | 
[V:1] c4B2c2A4 | 
[V:2] c2A2G2A4F2 | 
[V:3] A,2F,2G,2C,2D,4 | 
[V:1] G6c3B/A/G2 | 
[V:2] E4z4e4 | 
[V:3] E,6C,2C,4 | 
[V:1] A2B3AGFG4 | 
[V:2] f2g3fede4 | 
[V:3] z4z4C,4 | 
[V:1] F12 | 
[V:2] f8z4 | 
[V:3] D,6B,,3C,D,2 | 
[V:1] z12 | 
[V:2] a4a4g4 | 
[V:3] A,,2C,4D,2E,4 | 
[V:1] A4A4G4 | 
[V:2] f2f3ec2d2cB | 
[V:3] F,2D,3C,A,,2B,,2C,2 | 
[V:1] F2c4d2e4 | 
[V:2] A6F2G4 | 
[V:3] D,2F,3E,D,2C,4 | 
[V:1] f6a4gf | 
[V:2] F4z2F2A2B2 | 
[V:3] z2D,4F,4E,D, | 
[V:1] e2d4g4^f2 | 
[V:2] c2d4B2A4 | 
[V:3] C,2B,,2G,,4D,4 | 
[V:1] g4z4e4 | 
[V:2] G8z4 | 
[V:3] G,,2C,3D,E,3F,G,2 | 
[V:1] e8d4 | 
[V:2] c8B4 | 
[V:3] C,8z4 | 
[V:1] e4f6ed | 
[V:2] c4d8 | 
[V:3] z4B,,8 | 
[V:1] e4f4g4 | 
[V:2] c4A2B4G2 | 
[V:3] C,4D,4E,4 | 
[V:1] a4g2e2d4 | 
[V:2] F2A2B2c4=B2 | 
[V:3] D,2F,2E,2C,2G,,4 | 
[V:1] c3de2f4e2 | 
[V:2] c6A2G4 | 
[V:3] z2C,4D,2B,,2C,2 | 
[V:1] f12 | 
[V:2] F4z4F4 | 
[V:3] A,,2D,3C,B,,2A,,4 | 
[V:1] z4z4f4 | 
[V:2] G4F2A3GF2 | 
[V:3] G,,2B,,4C,2D,4 | 
[V:1] g4f2a3gf2 | 
[V:2] E4z4F4 | 
[V:3] E,4F,4D,4 | 
[V:1] e2f3gfe/d/^c3=B | 
[V:2] G2F2D4E4 | 
[V:3] C,2D,2B,,4A,,4 | 
[V:1] d2B2c2d4cB | 
[V:2] D4E2D2G4 | 
[V:3] B,,4z2B,,4F,,2 | 
[V:1] A3Bc2d3ef2 | 
[V:2] F3GA2B3cd2 | 
[V:3] D,3C,A,,2G,,2D,4 | 
[V:1] g2a4f4e2 | 
[V:2] B2c3FA2G4 | 
[V:3] E,2C,2F,4C,4 | 
[V:1] f12 ]|:  
[V:2] F12 ]|:  
[V:3] F,,12 ]|:  
[V:1]  [K:F] [K:clef=treble-8][M:2/1]e8 | 
[V:2]  [K:F] [K:clef=treble-8][M:2/1]c6BA | 
[V:3]  [K:F] [K:clef=bass][M:2/1]z8 | 
[V:1] e8 | 
[V:2] G2A3Bc2- | 
[V:3] C,8 | 
[V:1] e8 | 
[V:2] c2A2G4 | 
[V:3] C,4C,4 | 
[V:1] f4a4 | 
[V:2] F8 | 
[V:3] F,,8 | 
[V:1] g2f2f4- | 
[V:2] E4F4 | 
[V:3] C,4D,4 | 
[V:1] f4e4 | 
[V:2] G8 | 
[V:3] B,,4C,4 | 
[V:1] f6ed | 
[V:2] F8- | 
[V:3] D,6C,B,, | 
[V:1] c2d3cA2 | 
[V:2] F8 | 
[V:3] A,,2B,,3A,,F,,2 | 
[V:1] c3BG4 | 
[V:2] E8 | 
[V:3] A,,3B,,C,4 | 
[V:1] z4F4 | 
[V:2] F8 | 
[V:3] F,,4z4 | 
[V:1] A4B4 | 
[V:2] z8 | 
[V:3] F,4G,4 | 
[V:1] c8 | 
[V:2] F4A4 | 
[V:3] A,2F,4A,2 | 
[V:1] d4c2e2- | 
[V:2] B4c4- | 
[V:3] G,4E,2C,2- | 
[V:1] e2dc=B3A | 
[V:2] c4d4 | 
[V:3] C,B,,A,,2G,,4 | 
[V:1] c4B2A2- | 
[V:2] c4f4- | 
[V:3] z2C,2D,3E, | 
[V:1] A2F2G4 |[1 
[V:2] f4e4 | 
[V:3] F,4C,4 | 
[V:1] F4z2f2- | 
[V:2] f4d4- | 
[V:3] D,2B,,3C,D,2- | 
[V:1] f2g2a2g2- | 
[V:2] d2c2c4- | 
[V:3] D,2E,2F,2E,2 | 
[V:1] g2fed4 :|][2 
[V:2] c2A2=B4 :|]  
[V:3] C,4G,4 :|]  
[V:1] F4z2f2- | 
[V:2] f4d4- | 
[V:3] D,2B,,3C,D,2- | 
[V:1] f2g2a2g2- | 
[V:2] d2c2c4- | 
[V:3] D,2E,2F,2E,2 | 
[V:1] g2fed4 | 
[V:2] c2A2=B4 | 
[V:3] C,4G,4 | 
[V:1] c8 |]  
[V:2] c8 |]  
[V:3] C,8 |]  



